svg/baby_female_0203m_positive.svg

<?xml version="1.0" encoding="UTF-8" standalone="no"?>
<!-- Created with Inkscape (http://www.inkscape.org/) -->
<svg id="svg8" xmlns:rdf="http://www.w3.org/1999/02/22-rdf-syntax-ns#" xmlns="http://www.w3.org/2000/svg" xmlns:osb="http://www.openswatchbook.org/uri/2009/osb" height="48" width="48" version="1.1" xmlns:cc="http://creativecommons.org/ns#" viewBox="0 0 12.7 12.7" xmlns:dc="http://purl.org/dc/elements/1.1/">
 <title id="title4753">UIO-icon</title>
 <metadata id="metadata5">
  <rdf:RDF>
   <cc:Work rdf:about="">
    <dc:format>image/svg+xml</dc:format>
    <dc:type rdf:resource="http://purl.org/dc/dcmitype/StillImage"/>
    <dc:title>UIO-icon</dc:title>
    <dc:creator>
     <cc:Agent>
      <dc:title>Joaquín Urbano</dc:title>
     </cc:Agent>
    </dc:creator>
    <dc:rights>
     <cc:Agent>
      <dc:title>GPL</dc:title>
     </cc:Agent>
    </dc:rights>
   </cc:Work>
  </rdf:RDF>
 </metadata>
 <g id="layer1" transform="translate(0,-284.3)">
  <path id="circle5040" d="m20.654 3.998c-1.064 0.0469-2.225 0.456-2.941 1.4571-0.987 1.6688 0.073 2.5066 1.555 3.0215a14.273 12.398 0 0 0 -8.856 7.9394 4.1875 4.1875 0 0 0 -0.912 -0.104 4.1875 4.1875 0 0 0 -4.1875 4.188 4.1875 4.1875 0 0 0 4.1875 4.188 4.1875 4.1875 0 0 0 1.158 -0.165 14.273 12.398 0 0 0 13.342 8.034 14.273 12.398 0 0 0 8.117 -2.209 6.8536 6.8536 0 0 0 5.029 2.209 6.8536 6.8536 0 0 0 6.854 -6.854 6.8536 6.8536 0 0 0 -1.488 -4.254 6.8536 6.8536 0 0 1 0.076 0.094 4.1875 4.1875 0 0 0 0.135 -1.043 4.1875 4.1875 0 0 0 -4.188 -4.188 4.1875 4.1875 0 0 0 -0.93 0.11 14.273 12.398 0 0 0 -13.605 -8.6622 14.273 12.398 0 0 0 -1.074 0.039c-0.878-0.6466-4.991-0.4592-3.233-2.0508 1.542-1.2654 3.714-0.6413 0.862 0.795 4.322-0.9921 2.442-2.648 0.099-2.545zm3.346 5.4629a12.315 10.697 0 0 1 12.209 9.4611 6.8536 6.8536 0 0 0 -5.916 6.781 6.8536 6.8536 0 0 0 0.791 3.188 12.315 10.697 0 0 1 -7.084 1.964 12.315 10.697 0 0 1 -12.258 -9.746 2.326 2.326 0 0 1 -2.242 1.717 2.326 2.326 0 0 1 -2.3262 -2.326 2.326 2.326 0 0 1 2.3262 -2.326 2.326 2.326 0 0 1 2.207 1.599 12.315 10.697 0 0 1 12.293 -10.312zm-3.982 7.5391a1.5082 1.5082 0 0 0 -1.508 1.508 1.5082 1.5082 0 0 0 1.508 1.508 1.5082 1.5082 0 0 0 1.507 -1.508 1.5082 1.5082 0 0 0 -1.507 -1.508zm8 0a1.5082 1.5082 0 0 0 -1.508 1.508 1.5082 1.5082 0 0 0 1.508 1.508 1.5082 1.5082 0 0 0 1.507 -1.508 1.5082 1.5082 0 0 0 -1.507 -1.508zm10.517 1.174a2.326 2.326 0 0 1 2.246 1.722 6.8536 6.8536 0 0 0 -3.635 -1.046 6.8536 6.8536 0 0 0 -0.339 0.017 6.8536 6.8536 0 0 1 0.086 -0.008 2.326 2.326 0 0 1 1.642 -0.685zm-1.389 1.736a5.7929 5.7929 0 0 1 1.151 0.115 5.7929 5.7929 0 0 1 1.105 0.342 5.7929 5.7929 0 0 1 1.016 0.555 5.7929 5.7929 0 0 1 0.885 0.746 5.7929 5.7929 0 0 1 1.636 4.035 5.7929 5.7929 0 0 1 -0.115 1.151 5.7929 5.7929 0 0 1 -0.342 1.105 5.7929 5.7929 0 0 1 -0.554 1.016 5.7929 5.7929 0 0 1 -0.746 0.884 5.7929 5.7929 0 0 1 -4.036 1.637 5.7929 5.7929 0 0 1 -1.15 -0.115 5.7929 5.7929 0 0 1 -1.105 -0.342 5.7929 5.7929 0 0 1 -1.016 -0.555 5.7929 5.7929 0 0 1 -0.885 -0.746 5.7929 5.7929 0 0 1 -1.636 -4.035 5.7929 5.7929 0 0 1 0.029 -0.578 5.7929 5.7929 0 0 1 5.763 -5.215zm1.85 1.938l-0.484 0.484 0.759 0.762-1.277 1.277c-0.518-0.38-1.141-0.586-1.764-0.586-1.59 0-2.904 1.279-2.904 2.869 0 1.625 1.314 2.905 2.904 2.905 1.591 0 2.903-1.28 2.903-2.905 0-0.656-0.242-1.313-0.656-1.832l1.281-1.244 0.724 0.727 0.485-0.485-0.727-0.726 0.623-0.656-0.484-0.485-0.621 0.621-0.762-0.726zm-19.824 1.793c-0.247 0.022-0.47 0.264-0.438 0.658 0.203 1.978 2.507 3.509 5.284 3.512 2.778-0.001 5.085-1.533 5.289-3.512-1.171 1.653-3.002 2.734-5.289 2.781-2.214-0.001-4.06-1.207-4.26-2.781-0.067-0.484-0.339-0.681-0.586-0.658zm17.058 0.8c1.21 0 2.211 1.003 2.211 2.213 0 1.245-1.001 2.246-2.211 2.246-1.209 0-2.212-1.001-2.212-2.246 0-1.21 1.003-2.213 2.212-2.213zm-32.23 9.559v10h40v-10h-40zm3.8672 1.096c0.8281 0 1.462 0.274 1.9004 0.82 0.4384 0.543 0.6614 1.324 0.6714 2.344v1.398c0 1.051-0.217 1.854-0.6519 2.41-0.4349 0.557-1.0716 0.836-1.9101 0.836-0.8282 0-1.4601-0.274-1.8985-0.82s-0.6634-1.328-0.6738-2.348v-1.398c0-1.061 0.2198-1.868 0.6582-2.418 0.4419-0.55 1.0762-0.824 1.9043-0.824zm6.0858 0c0.783 0 1.389 0.188 1.82 0.564 0.435 0.376 0.655 0.906 0.655 1.592 0 0.376-0.098 0.759-0.293 1.148-0.195 0.39-0.529 0.843-1.002 1.362l-1.729 1.822h3.268v1.215h-5.209v-1.033l2.459-2.62c0.337-0.368 0.586-0.691 0.746-0.966 0.164-0.275 0.246-0.535 0.246-0.782 0-0.337-0.085-0.603-0.256-0.794-0.17-0.195-0.416-0.292-0.732-0.292-0.341 0-0.61 0.119-0.809 0.356-0.195 0.233-0.291 0.539-0.291 0.922h-1.514c0-0.463 0.109-0.885 0.329-1.268 0.222-0.382 0.535-0.68 0.939-0.896 0.404-0.219 0.862-0.33 1.373-0.33zm10.344 0c0.828 0 1.462 0.274 1.9 0.82 0.439 0.543 0.664 1.324 0.674 2.344v1.398c0 1.051-0.217 1.854-0.652 2.41-0.435 0.557-1.072 0.836-1.91 0.836-0.829 0-1.462-0.274-1.901-0.82-0.438-0.546-0.663-1.328-0.674-2.348v-1.398c0-1.061 0.22-1.868 0.659-2.418 0.441-0.55 1.076-0.824 1.904-0.824zm5.998 0c0.804 0 1.433 0.194 1.889 0.58 0.455 0.383 0.683 0.911 0.683 1.586 0 0.348-0.106 0.668-0.318 0.961-0.212 0.292-0.49 0.517-0.834 0.673 0.428 0.154 0.746 0.382 0.955 0.688 0.212 0.306 0.318 0.668 0.318 1.086 0 0.675-0.248 1.216-0.742 1.623-0.491 0.407-1.14 0.611-1.951 0.611-0.759 0-1.38-0.199-1.863-0.599-0.481-0.4-0.721-0.931-0.721-1.588h1.508c0 0.285 0.106 0.518 0.318 0.699 0.216 0.181 0.48 0.272 0.793 0.272 0.358 0 0.64-0.094 0.842-0.282 0.205-0.191 0.307-0.444 0.307-0.758 0-0.758-0.417-1.136-1.252-1.136h-0.799v-1.18h0.804c0.383 0 0.666-0.096 0.85-0.287s0.277-0.445 0.277-0.762c0-0.306-0.093-0.544-0.277-0.715-0.181-0.17-0.432-0.256-0.752-0.256-0.289 0-0.53 0.081-0.725 0.241-0.194 0.156-0.293 0.361-0.293 0.615h-1.507c0-0.397 0.106-0.751 0.318-1.064 0.216-0.317 0.516-0.565 0.898-0.743 0.387-0.177 0.811-0.265 1.274-0.265zm3.898 0.105h2.047l1.951 5.512 1.942-5.512h2.056v7.598h-1.57v-2.076l0.156-3.586-2.05 5.662h-1.077l-2.046-5.656 0.158 3.58v2.076h-1.567v-7.598zm-26.326 1.115c-0.3549 0-0.6186 0.14-0.7891 0.414-0.167 0.272-0.2552 0.697-0.2656 1.278v1.847c0 0.62 0.083 1.081 0.25 1.383 0.1705 0.3 0.4421 0.45 0.8145 0.45 0.3688 0 0.6352-0.145 0.7988-0.434 0.1635-0.289 0.2489-0.729 0.2558-1.324v-1.807c0-0.63-0.0877-1.088-0.2617-1.373-0.1705-0.289-0.4374-0.434-0.8027-0.434zm16.43 0c-0.355 0-0.617 0.14-0.787 0.414-0.167 0.272-0.255 0.697-0.266 1.278v1.847c0 0.62 0.083 1.081 0.25 1.383 0.171 0.3 0.442 0.45 0.815 0.45 0.368 0 0.635-0.145 0.798-0.434 0.164-0.289 0.247-0.729 0.254-1.324v-1.807c0-0.63-0.085-1.088-0.259-1.373-0.171-0.289-0.44-0.434-0.805-0.434zm-6.639 2.622h2.94v1.216h-2.94v-1.216z" fill-rule="evenodd" transform="matrix(.26458 0 0 .26458 0 284.3)" fill="#333"/>
 </g>
</svg>

<svg width="48" height="48" viewBox="0 0 48 48" fill="none" xmlns="http://www.w3.org/2000/svg">
<path fill-rule="evenodd" clip-rule="evenodd" d="M20.6538 3.99799C19.5898 4.04489 18.4288 4.45399 17.7128 5.45508C16.7258 7.12386 17.7858 7.96164 19.2678 8.47654C17.1852 9.11458 15.3014 10.1637 13.7648 11.5413C12.2281 12.919 11.0804 14.5876 10.4119 16.4158C10.1127 16.3479 9.80682 16.313 9.49993 16.3118C8.94999 16.3118 8.40543 16.4202 7.89735 16.6306C7.38927 16.8411 6.92763 17.1496 6.53878 17.5385C6.14993 17.9274 5.8415 18.3891 5.63109 18.8972C5.42068 19.4053 5.31242 19.9498 5.31248 20.4998C5.31242 21.0497 5.42068 21.5943 5.63109 22.1024C5.8415 22.6105 6.14993 23.0722 6.53878 23.4611C6.92763 23.85 7.38927 24.1585 7.89735 24.3689C8.40543 24.5794 8.94999 24.6877 9.49993 24.6877C9.89174 24.6872 10.2815 24.6316 10.6579 24.5227C11.6788 26.8807 13.5023 28.9126 15.8858 30.3478C18.2693 31.7831 21.0996 32.5535 23.9997 32.5566C26.901 32.554 29.7324 31.7835 32.1166 30.3477C32.7572 31.0428 33.5347 31.5978 34.4001 31.978C35.2656 32.3581 36.2003 32.5551 37.1456 32.5566C38.0457 32.5567 38.9369 32.3794 39.7685 32.035C40.6001 31.6906 41.3557 31.1857 41.9921 30.5493C42.6286 29.9128 43.1335 29.1572 43.4779 28.3257C43.8223 27.4941 43.9996 26.6028 43.9995 25.7027C43.9972 24.1575 43.4729 22.6585 42.5115 21.4488C42.5371 21.4799 42.5625 21.5112 42.5875 21.5428C42.6762 21.2022 42.7215 20.8517 42.7225 20.4998C42.7226 19.9498 42.6143 19.4052 42.4039 18.8971C42.1934 18.3889 41.8849 17.9272 41.496 17.5383C41.1071 17.1494 40.6454 16.8409 40.1373 16.6305C39.6292 16.4201 39.0846 16.3118 38.5346 16.3118C38.2214 16.3136 37.9095 16.3505 37.6046 16.4218C36.6907 13.9097 34.8792 11.7158 32.4329 10.1582C29.9867 8.60071 27.0328 7.7606 23.9997 7.75975C23.6413 7.76103 23.2831 7.77404 22.9258 7.79875C22.0478 7.15216 17.9348 7.33955 19.6928 5.74797C21.2348 4.48259 23.4068 5.10668 20.5548 6.54296C24.8767 5.55088 22.9968 3.895 20.6538 3.99799ZM23.9997 9.46083C27.0154 9.46583 29.9241 10.4318 32.1744 12.1756C34.4247 13.9195 35.8602 16.3199 36.2086 18.9218C34.5703 19.1481 33.0691 19.9591 31.9818 21.2053C30.8946 22.4515 30.2946 24.0489 30.2927 25.7027C30.294 26.8138 30.5655 27.9079 31.0837 28.8907C29.0117 30.1637 26.5376 30.8497 23.9997 30.8547C20.9246 30.8529 17.9615 29.8518 15.6931 28.0483C13.4248 26.2448 12.0153 23.7693 11.7419 21.1088C11.6083 21.6013 11.3164 22.0362 10.9113 22.3464C10.5062 22.6567 10.0102 22.8251 9.49993 22.8258C9.19446 22.8258 8.89198 22.7656 8.60976 22.6488C8.32754 22.5319 8.0711 22.3606 7.85509 22.1446C7.63908 21.9286 7.46774 21.6722 7.35083 21.3899C7.23393 21.1077 7.17376 20.8053 7.17376 20.4998C7.17376 20.1943 7.23393 19.8918 7.35083 19.6096C7.46774 19.3274 7.63908 19.071 7.85509 18.855C8.0711 18.639 8.32754 18.4677 8.60976 18.3508C8.89198 18.2339 9.19446 18.1738 9.49993 18.1738C9.98923 18.1743 10.4659 18.3291 10.8621 18.6162C11.2584 18.9033 11.554 19.308 11.7069 19.7728C11.8216 17.0064 13.1665 14.3863 15.459 12.4633C17.7514 10.5403 20.8128 9.46408 23.9997 9.46093V9.46083ZM20.0178 16.9998C19.6179 16.9999 19.2343 17.1588 18.9516 17.4416C18.6688 17.7244 18.5099 18.1079 18.5098 18.5078C18.5099 18.9077 18.6688 19.2913 18.9516 19.5741C19.2343 19.8568 19.6179 20.0157 20.0178 20.0158C20.4176 20.0155 20.8008 19.8565 21.0834 19.5737C21.366 19.2909 21.5247 18.9076 21.5248 18.5078C21.5247 18.1081 21.366 17.7247 21.0834 17.4419C20.8008 17.1592 20.4176 17.0001 20.0178 16.9998ZM28.0177 16.9998C27.6178 16.9999 27.2342 17.1588 26.9515 17.4416C26.6687 17.7244 26.5098 18.1079 26.5097 18.5078C26.5098 18.9077 26.6687 19.2913 26.9515 19.5741C27.2342 19.8568 27.6178 20.0157 28.0177 20.0158C28.4175 20.0155 28.8007 19.8565 29.0833 19.5737C29.3659 19.2909 29.5246 18.9076 29.5247 18.5078C29.5246 18.1081 29.3659 17.7247 29.0833 17.4419C28.8007 17.1592 28.4175 17.0001 28.0177 16.9998ZM38.5346 18.1738C39.0462 18.1739 39.5436 18.3426 39.9496 18.6539C40.3556 18.9652 40.6477 19.4017 40.7805 19.8958C39.691 19.2131 38.4314 18.8506 37.1456 18.8498C37.0325 18.8527 36.9194 18.8583 36.8066 18.8668C36.8352 18.864 36.8639 18.8613 36.8926 18.8588C37.3275 18.4219 37.9181 18.1755 38.5346 18.1738ZM37.1456 19.9098C37.5321 19.9096 37.9177 19.9482 38.2966 20.0248C38.6754 20.1016 39.0456 20.2162 39.4016 20.3668C39.7579 20.5174 40.0983 20.7033 40.4175 20.9218C40.7367 21.1403 41.0332 21.3902 41.3025 21.6678C42.3518 22.7488 42.9386 24.1962 42.9385 25.7027C42.9387 26.0893 42.9002 26.4748 42.8235 26.8537C42.7467 27.2325 42.6321 27.6027 42.4815 27.9587C42.3312 28.315 42.1456 28.6554 41.9275 28.9747C41.709 29.2935 41.4591 29.5896 41.1815 29.8587C40.1004 30.9085 38.6526 31.4958 37.1456 31.4956C36.7594 31.4957 36.3741 31.4572 35.9956 31.3807C35.6168 31.3038 35.2466 31.1892 34.8906 31.0387C34.5343 30.888 34.1939 30.7021 33.8746 30.4837C33.5555 30.2652 33.259 30.0153 32.9896 29.7377C31.9404 28.6566 31.3535 27.2093 31.3537 25.7027C31.3537 25.5097 31.3634 25.3168 31.3827 25.1247C31.5259 23.6958 32.1949 22.371 33.2597 21.4074C34.3246 20.4437 35.7095 19.91 37.1456 19.9098ZM38.9956 21.8478L38.5116 22.3318L39.2706 23.0938L37.9936 24.3707C37.4756 23.9907 36.8526 23.7847 36.2296 23.7847C34.6396 23.7847 33.3256 25.0637 33.3256 26.6537C33.3256 28.2787 34.6396 29.5587 36.2296 29.5587C37.8206 29.5587 39.1326 28.2787 39.1326 26.6537C39.1326 25.9977 38.8906 25.3407 38.4766 24.8217L39.7576 23.5777L40.4815 24.3047L40.9665 23.8197L40.2395 23.0938L40.8625 22.4378L40.3785 21.9528L39.7576 22.5738L38.9956 21.8478ZM19.1718 23.6407C18.9248 23.6627 18.7018 23.9047 18.7338 24.2987C18.9368 26.2767 21.2408 27.8077 24.0177 27.8107C26.7957 27.8097 29.1027 26.2777 29.3067 24.2987C28.1357 25.9517 26.3047 27.0327 24.0177 27.0797C21.8038 27.0787 19.9578 25.8727 19.7578 24.2987C19.6908 23.8147 19.4188 23.6177 19.1718 23.6407ZM36.2296 24.4407C37.4396 24.4407 38.4406 25.4437 38.4406 26.6537C38.4406 27.8987 37.4396 28.8997 36.2296 28.8997C35.0206 28.8997 34.0176 27.8987 34.0176 26.6537C34.0176 25.4437 35.0206 24.4407 36.2296 24.4407ZM4 33.9996V43.9995H43.9995V33.9996H4ZM7.86715 35.0956C8.69524 35.0956 9.32913 35.3696 9.76753 35.9156C10.2059 36.4586 10.4289 37.2396 10.4389 38.2596V39.6576C10.4389 40.7085 10.2219 41.5115 9.78703 42.0675C9.35213 42.6245 8.71544 42.9035 7.87695 42.9035C7.04876 42.9035 6.41687 42.6295 5.97848 42.0835C5.54008 41.5375 5.31508 40.7555 5.30468 39.7355V38.3376C5.30468 37.2766 5.52448 36.4696 5.96288 35.9196C6.40477 35.3696 7.03906 35.0956 7.86715 35.0956ZM13.9529 35.0956C14.7359 35.0956 15.3419 35.2836 15.7729 35.6596C16.2078 36.0356 16.4278 36.5656 16.4278 37.2516C16.4278 37.6276 16.3298 38.0106 16.1348 38.3996C15.9399 38.7896 15.6059 39.2426 15.1329 39.7615L13.4039 41.5835H16.6718V42.7985H11.4629V41.7655L13.9219 39.1456C14.2589 38.7776 14.5079 38.4546 14.6679 38.1796C14.8319 37.9046 14.9139 37.6446 14.9139 37.3976C14.9139 37.0606 14.8289 36.7946 14.6579 36.6036C14.4879 36.4086 14.2419 36.3116 13.9259 36.3116C13.5849 36.3116 13.3159 36.4306 13.1169 36.6676C12.9219 36.9006 12.8259 37.2066 12.8259 37.5896H11.3119C11.3119 37.1266 11.4209 36.7046 11.6409 36.3216C11.8629 35.9396 12.1759 35.6416 12.5799 35.4256C12.9839 35.2066 13.4419 35.0956 13.9529 35.0956ZM24.2967 35.0956C25.1247 35.0956 25.7587 35.3696 26.1967 35.9156C26.6357 36.4586 26.8607 37.2396 26.8707 38.2596V39.6576C26.8707 40.7085 26.6537 41.5115 26.2187 42.0675C25.7837 42.6245 25.1467 42.9035 24.3087 42.9035C23.4798 42.9035 22.8468 42.6295 22.4078 42.0835C21.9698 41.5375 21.7448 40.7555 21.7338 39.7355V38.3376C21.7338 37.2766 21.9538 36.4696 22.3928 35.9196C22.8338 35.3696 23.4688 35.0956 24.2967 35.0956ZM30.2947 35.0956C31.0987 35.0956 31.7277 35.2896 32.1836 35.6756C32.6386 36.0586 32.8666 36.5866 32.8666 37.2616C32.8666 37.6096 32.7606 37.9296 32.5486 38.2226C32.3366 38.5146 32.0586 38.7396 31.7147 38.8956C32.1426 39.0496 32.4606 39.2776 32.6696 39.5835C32.8816 39.8895 32.9876 40.2515 32.9876 40.6695C32.9876 41.3445 32.7396 41.8855 32.2456 42.2925C31.7547 42.6995 31.1057 42.9035 30.2947 42.9035C29.5357 42.9035 28.9147 42.7045 28.4317 42.3045C27.9507 41.9045 27.7107 41.3735 27.7107 40.7165H29.2187C29.2187 41.0015 29.3247 41.2345 29.5367 41.4155C29.7527 41.5965 30.0167 41.6875 30.3297 41.6875C30.6877 41.6875 30.9697 41.5935 31.1717 41.4055C31.3767 41.2145 31.4787 40.9615 31.4787 40.6475C31.4787 39.8895 31.0617 39.5116 30.2267 39.5116H29.4277V38.3316H30.2317C30.6147 38.3316 30.8977 38.2356 31.0817 38.0446C31.2657 37.8536 31.3587 37.5996 31.3587 37.2826C31.3587 36.9766 31.2657 36.7386 31.0817 36.5676C30.9007 36.3976 30.6497 36.3116 30.3297 36.3116C30.0407 36.3116 29.7997 36.3926 29.6047 36.5526C29.4107 36.7086 29.3117 36.9136 29.3117 37.1676H27.8047C27.8047 36.7706 27.9107 36.4166 28.1227 36.1036C28.3387 35.7866 28.6387 35.5386 29.0207 35.3606C29.4077 35.1836 29.8317 35.0956 30.2947 35.0956ZM34.1926 35.2006H36.2396L38.1906 40.7125L40.1325 35.2006H42.1885V42.7985H40.6185V40.7225L40.7745 37.1366L38.7246 42.7985H37.6476L35.6016 37.1426L35.7596 40.7225V42.7985H34.1926V35.2006ZM7.86695 36.3156C7.51206 36.3156 7.24836 36.4556 7.07786 36.7296C6.91086 37.0016 6.82266 37.4266 6.81227 38.0076V39.8545C6.81227 40.4745 6.89526 40.9355 7.06226 41.2375C7.23276 41.5375 7.50436 41.6875 7.87675 41.6875C8.24555 41.6875 8.51194 41.5425 8.67554 41.2535C8.83904 40.9645 8.92444 40.5245 8.93134 39.9295V38.1226C8.93134 37.4926 8.84364 37.0346 8.66964 36.7496C8.49914 36.4606 8.23225 36.3156 7.86695 36.3156ZM24.2967 36.3156C23.9418 36.3156 23.6798 36.4556 23.5098 36.7296C23.3428 37.0016 23.2548 37.4266 23.2438 38.0076V39.8545C23.2438 40.4745 23.3268 40.9355 23.4938 41.2375C23.6648 41.5375 23.9358 41.6875 24.3087 41.6875C24.6767 41.6875 24.9437 41.5425 25.1067 41.2535C25.2707 40.9645 25.3537 40.5245 25.3607 39.9295V38.1226C25.3607 37.4926 25.2757 37.0346 25.1017 36.7496C24.9307 36.4606 24.6617 36.3156 24.2967 36.3156ZM17.6578 38.9376H20.5978V40.1535H17.6578V38.9376Z" fill="#333333"/>
</svg>
